imageToSVG/hook.svg

<?xml version="1.0" encoding="UTF-8" standalone="no"?>
<!-- Created with Inkscape (http://www.inkscape.org/) -->

<svg
   width="16.95339mm"
   height="260.7886mm"
   viewBox="0 0 16.95339 260.7886"
   version="1.1"
   id="svg1"
   xml:space="preserve"
   xmlns="http://www.w3.org/2000/svg"
   xmlns:svg="http://www.w3.org/2000/svg"><defs
     id="defs1" /><g
     id="layer1"
     transform="translate(-95.581812,-18.084854)"><g
       style="fill:none"
       id="g1"
       transform="matrix(0.26458333,0,0,0.26458333,97.321663,18.126564)"><path
         d="M 55.5,629.5 53.4999,982 c 0,0 -8.7397,3.5 -14.5,3.5 -5.7602,0 -15,-3.5 -15,-3.5 l -8.5,-352.5 c 0,0 3.5841,-61.533 3.5,-101 -0.1169,-54.947 -7.5,-140.5 -7.5,-140.5 V 140 L 27,47 C 27,47 3.9293271,69.0037 -4.2077229,66.5 -10.707713,64.5 -4.6204821,3.3539035 23.9999,0 40.411597,-1.9232185 44.1867,14.0996 48.5,29 c 5.5,19 9,111 9,111 l -4.0001,248 c 0,0 -3.3307,83.744 -2.5,143.5 0.4862,34.968 4.5001,98 4.5001,98 z"
         fill="#d9d9d9"
         id="path1" /></g></g></svg>

<svg width="58" height="986" viewBox="0 0 58 986" fill="none" xmlns="http://www.w3.org/2000/svg">
<path d="M55.5 629.5L53.4999 982C53.4999 982 44.7602 985.5 38.9999 985.5C33.2397 985.5 23.9999 982 23.9999 982L15.4999 629.5C15.4999 629.5 19.084 567.967 18.9999 528.5C18.883 473.553 11.4999 388 11.4999 388V140L27 47C27 47 10.637 69.0037 2.49995 66.5C-4.00004 64.5 6 6.70961e-05 23.9999 0C40.5239 -6.15943e-05 44.1867 14.0996 48.5 29C54 48 57.5 140 57.5 140L53.4999 388C53.4999 388 50.1692 471.744 50.9999 531.5C51.4861 566.468 55.5 629.5 55.5 629.5Z" fill="#D9D9D9"/>
</svg>
